**kern	**kern	**kern	**kern	**harm
*staff4	*staff3	*staff2	*staff1	*staff1
=1-	=1-	=1-	=1-	=1-
*clefF4	*clefF4	*clefG2	*clefG2	*
*k[f#c#g#d#a#e#]	*k[f#c#g#d#a#e#]	*k[f#c#g#d#a#e#]	*k[f#c#g#d#a#e#]	*
*M4/4	*M4/4	*M4/4	*M4/4	*
*	*	*	*MM60	*
*F#:	*F#:	*F#:	*F#:	*F#:
1r	1r	1r	2r	.
.	.	.	4r	.
.	.	.	4c#/	.
=2	=2	=2	=2	=2
[1F#	1A#	1c#	4f#/	I
.	.	.	4a#/	.
.	.	.	4cc#\	.
.	.	.	8.a#/L	.
.	.	.	16f#/Jk	.
=3	=3	=3	=3	=3
1F#]	2B\	2d#/	4ff#\	IV64
.	.	.	8.dd#\L	.
.	.	.	16b\Jk	.
.	2A#\	2c#/	4cc#\	I
.	.	.	8.a#/L	.
.	.	.	16f#/Jk	.
=4	=4	=4	=4	=4
[1C#	4G#\	4B/	4e#/	V7
.	4F#\	4A#/	4f#/	I64
.	4E#\	4g#/	4b\	V7
.	8.F#\L	4f#/	4a#/	I64
.	16A#\Jk	.	.	.
=5	=5	=5	=5	=5
!!linebreak:original
2C#/]	2c#\	4.e#/	4.g#/	V7
.	.	8f#/	16b/LL	.
.	.	.	16a#/JJ	.
2r	2r	4e#'/	4g#'/	.
.	.	4r	4c#/	.
=6	=6	=6	=6	=6
[1FF#	1A#	1c#	4f#/	I
.	.	.	4a#/	.
.	.	.	4cc#\	.
.	.	.	8.a#/L	.
.	.	.	16f#/Jk	.
=7	=7	=7	=7	=7
1FF#]	2B\	2d#/	4ff#\	IV64
.	.	.	8.dd#\L	.
.	.	.	16b\Jk	.
.	2A#\	4c#/	4cc#\	I
.	.	4f#/	8.a#/L	.
.	.	.	16f#/Jk	.
=8	=8	=8	=8	=8
2BB/	2G#\	2f#/	2dd#\	ii6
2BB#/	2G#\	[2f#/	8d#/L	V65/V
.	.	.	8e#/	.
.	.	.	8f#/	.
.	.	.	8g#/J	.
=9	=9	=9	=9	=9
1C#	4F#\	2f#/]	2a#/	C64
.	4A#\	.	.	.
.	2B\	2e#/	8.g#/L	V7
.	.	.	16f#/Jk	.
.	.	.	8.g#/L	.
.	.	.	16a#/Jk	.
=10	=10	=10	=10	=10
!!linebreak:original
4F#\	4A#\	4f#/	4f#/	I
4F#\	4A#\	4c#/	4r	.
4F#\	4A#\	4c#/	4r	.
4F#\	4A#\	4c#/	8r	.
.	.	.	16r	.
.	.	.	16cc#\	.
=11	=11	=11	=11	=11
4F#\	4B\	4e#/	8.g#/L	V7
.	.	.	16c#/Jk	.
4F#\	4B\	4e#/	8.b/L	.
.	.	.	16a#/Jk	.
4F#\	4B\	4e#/	4g#'/	.
4F#\	4B\	4e#/	8r	.
.	.	.	16r	.
.	.	.	16cc#\	.
=12	=12	=12	=12	=12
4F#\	4A#\	4f#/	8.f#/L	I
.	.	.	16c#/Jk	.
4F#\	4A#\	4c#/	8.a#/L	.
.	.	.	16g#/Jk	.
4F#\	4A#\	4c#/	4f#'/	.
4F#\	4A#\	4c#/	8r	.
.	.	.	16r	.
.	.	.	16cc#\	.
=13	=13	=13	=13	=13
4F#\	4B\	4e#/	8.g#/L	V7
.	.	.	16c#/Jk	.
4F#\	4B\	4e#/	8.b/L	.
.	.	.	16a#/Jk	.
4F#\	4B\	4e#/	4g#'/	.
4F#\	4B\	4e#/	8r	.
.	.	.	16r	.
.	.	.	16cc#\	.
=14	=14	=14	=14	=14
!!pagebreak:original
2F#\	2A#\	2f#/	8.a#/L	I
.	.	.	16f#/Jk	.
.	.	.	8.cc#\L	.
.	.	.	32a#\LL	.
.	.	.	32cc#\JJJ	.
2r	2r	2r	8.ff#\L	.
.	.	.	16cc#\Jk	.
.	.	.	8.aa#\L	.
.	.	.	16gg#\Jk	.
=15	=15	=15	=15	=15
*	*clefG2	*	*	*
*d#:	*d#:	*d#:	*d#:	*d#:
2d#\	2d#/	[1a#	4ff#\	i
.	.	.	8.ff#\L	.
.	.	.	16gg#\Jk	.
2A#\	2c##/	.	4ee#\	V
.	.	.	8.aa#\L	.
.	.	.	16ff#\Jk	.
=16	=16	=16	=16	=16
2B\	2d#/	4a#/]	4dd#\	VI
.	.	4g##/	8.dd#\L	Fr
.	.	.	16ee#\Jk	.
4A#\	4e#/	4a#/	4cc##\	V
4G#\	4c##/	4e#/	4a#/	V42
=17	=17	=17	=17	=17
!!linebreak:original
*C#:	*C#:	*C#:	*C#:	*C#:
1F#	4A#/	[1f#	4dd#\	ii6
.	2d#/	.	4ff#\	.
.	.	.	4aa#\	.
.	4d#/	.	16gg#\LL	.
.	.	.	16ff#\	.
.	.	.	16ee#\	.
.	.	.	16dd#\JJ	.
=18	=18	=18	=18	=18
2.G#\	2.d#/	2.f#/]	2cc#\	V7
.	.	.	4b#\	.
4GG#/	4r	4r	4r	.
=19	=19	=19	=19	=19
4C#/	2r	[1g#	8.ee#\L	I
.	.	.	16g#\Jk	.
4E#\	.	.	8.gg#\L	.
.	.	.	16ff#\Jk	.
*	*clefF4	*	*	*
4G#\	2C#/	.	4ee#'\	.
8.E#\L	.	.	8r	.
.	.	.	16r	.
16C#\Jk	.	.	16g#/	.
=20	=20	=20	=20	=20
4BB#/	4BB#/	1g#]	8.dd#\L	V65
.	.	.	16g#\Jk	.
4D#\	4r	.	8.ff#\L	.
.	.	.	16ee#\Jk	.
4G#\	4BB#/	.	4dd#'\	.
8.D#/L	4B#\	.	8r	.
.	.	.	16r	.
16BB#/Jk	.	.	16g#/	.
=21	=21	=21	=21	=21
!!linebreak:original
4C#/	4c#/	8.ee#\L	2gg#\	I
.	.	16g#\Jk	.	.
4r	4e#/	8.gg#\L	.	.
.	.	16ff#\Jk	.	.
4CC#/	4g#/	4ee#'\	4gg#\	.
4EE#/	8.e#/L	8r	4gg#\	.
.	.	16r	.	.
.	16c#/Jk	16g#/	.	.
=22	=22	=22	=22	=22
4GG#/	4B#/	8.dd#\L	[1gg#	V7
.	.	16g#\Jk	.	.
4r	4d#/	8.ff#\L	.	.
.	.	16ee#\Jk	.	.
2BBB#/	4g#/	4dd#'\	.	V65/V
.	8.f#/L	8r	.	.
.	.	16r	.	.
.	16d#/Jk	16g#/	.	.
=23	=23	=23	=23	=23
4CC#/	4c#/	8.ee#\L	1gg#_	V7
.	.	16g#\Jk	.	.
4r	8.e#/L	8.gg#\L	.	.
.	16d#/Jk	16ff#\Jk	.	.
2r	4c#/	4ee#\	.	.
.	4B#/	4dd#\	.	V6/V
=24	=24	=24	=24	=24
2r	8.A#/L	1cc#	2gg#\]	vi
.	16c#/Jk	.	.	.
.	8.e#/L	.	.	.
.	16c#/Jk	.	.	.
8.D#\L	2a#/	.	[2ff#\	ii
16F#\Jk	.	.	.	.
8.A#\L	.	.	.	.
16F#\Jk	.	.	.	.
=25	=25	=25	=25	=25
!!pagebreak:original
4d#\	8.G#/L	2b#\	2ff#\]	V43
.	16B#/Jk	.	.	.
4r	8.d#/L	.	.	.
.	16B#/Jk	.	.	.
8.C#\L	2g#/	[2cc#\	2ee#\	I
16E#\Jk	.	.	.	.
8.G#\L	.	.	.	.
16E#\Jk	.	.	.	.
=26	=26	=26	=26	=26
2F#\	1a#	1cc#_	8.dd#\L	IV
.	.	.	16ff#\Jk	.
.	.	.	8.aa#\L	.
.	.	.	16ff#\Jk	.
2F##\	.	.	4dd#\	V65/V
.	.	.	4dd#\	.
=27	=27	=27	=27	=27
1G#	2g#/	2cc#\]	[2dd#\	V7
.	4f#/	2b#\	8dd#\L]	.
.	.	.	8ee#\	.
.	4d#/	.	8ff#\	.
.	.	.	8gg#\J	.
=28	=28	=28	=28	=28
2.A#\	2.c#/	2.cc#\	2ff#\	IV6
.	.	.	8.ee#\L	I
.	.	.	16ccc#\Jk	.
4r	4r	4r	8.gg#\L	.
.	.	.	16ee#\Jk	.
=29	=29	=29	=29	=29
!!linebreak:original
*	*clefF4	*	*	*
2E#\	2c#\	2G#/	8.cc#\L	I6
.	.	.	16cc#\Jk	.
.	.	.	8.g#/L	.
.	.	.	16e#/Jk	.
2EE#/	2G#\	2c#/	8.c#/L	.
.	.	.	16e#/Jk	.
.	.	.	8.g#/L	.
.	.	.	16e#/Jk	.
=30	=30	=30	=30	=30
1FF#	[1A#	[1c#	8.d#/L	ii6
.	.	.	16f#/Jk	.
.	.	.	8.a#/L	.
.	.	.	16f#/Jk	.
.	.	.	4d#/	.
.	.	.	4d#/	.
=31	=31	=31	=31	=31
1FF##	1A#]	1c#_	8.en/L	viio7/V
.	.	.	16a#/Jk	.
.	.	.	8.cc#/L	.
.	.	.	16a#/Jk	.
.	.	.	4e/	.
.	.	.	4e/	.
=32	=32	=32	=32	=32
[1GG#	4G#\	1c#]	8.e#/L	C64
.	.	.	16g#/Jk	.
.	4E#\	.	8.cc#/L	.
.	.	.	16g#/Jk	.
.	2C#/	.	4ee#\	.
.	.	.	16dd#\LL	.
.	.	.	16cc#\	.
.	.	.	16b#\	.
.	.	.	16a#\JJ	.
=33	=33	=33	=33	=33
!!linebreak:original
1GG#]	4D#\	2c#/	[2g#/	.
.	4E#\	.	.	.
.	2F#\	2B#/	8g#/L]	V7
.	.	.	8f#/	.
.	.	.	8e#/	.
.	.	.	8d#/J	.
=34	=34	=34	=34	=34
4CC#/	4E#'\	4c#/	4c#/	I
4r	4r	4r	4r	.
2r	2r	2r	2r	.
*-	*-	*-	*-	*-
